X: 47
T: You Call Everybody Darling
I: You Call Everybody Darling	S-Y	G	square
C: S-Y
M: C|
Z: Transcribed to abc by Mary Lou Knack
R: square
K: G
"G"d3d edBd| b2g2- g3d| edBd edBd| "D7"f4- f3d|
"D7"f^efe fa2d| "G"gfga "Em"bg2^g| "A7"a^gab a=gfe| "D7"ffg^g a4|
"G"d3d edBd| b2g2- g3g| agfg "G7"agf=f| "C"e4- e3^d|
"C"e^def g3e| "G"d^cdg "E"b3d| "A7"e^de^e "D7"fef=d| "G"g8 |]
% %text 9/26/98

% ---------- Z ----------
#include "LeftHeader.h"
% %text This page intentionally left blank

% Roaring Jelly miscellaneae

#include "RightHeader.h"
% %vskip 10cm
% %center $2Miscellaneous
#include "LeftHeader.h"
% %center This page intentionally blank
#include "RightHeader.h"
% %footer 09/01/98 For use only by Roaring Jelly members
% ---------- page 1 ----------

